packages/landing-ui/public/feature-campaigns.svg

<svg width="75" height="75" viewBox="0 0 75 75" fill="none" xmlns="http://www.w3.org/2000/svg">
<path d="M73.5831 11.3985L74.5705 10.4111C75.1425 9.83907 75.1425 8.91155 74.5705 8.33939C73.9985 7.76752 73.071 7.76752 72.4988 8.33939L71.5114 9.32683L70.5245 8.33997C70.2499 8.06532 69.8772 7.91093 69.4887 7.91093H67.8776L60.3957 0.429047C60.1209 0.154392 59.7484 0 59.3599 0H5.27542C2.36657 0 0 2.36642 0 5.27542V32.7264C0 35.6352 2.36657 38.0018 5.27542 38.0018H18.037L9.45529 46.5836C8.45892 47.58 7.91019 48.9047 7.91019 50.3139C7.91019 51.7229 8.45892 53.0477 9.45529 54.0442L28.866 73.4549C29.8623 74.4513 31.1871 75 32.5963 75C34.0054 75 35.3302 74.4513 36.3266 73.4549L50.8645 58.9171C51.4367 58.3451 51.4367 57.4176 50.8645 56.8454C50.2925 56.2737 49.365 56.2735 48.793 56.8454L34.2549 71.3832C33.8119 71.8263 33.2228 72.0702 32.5963 72.0702C31.9698 72.0702 31.3806 71.8263 30.9377 71.3832L11.5268 51.9725C11.0839 51.5296 10.8398 50.9404 10.8398 50.3139C10.8398 49.6873 11.0839 49.0983 11.5268 48.6553L49.3413 10.8409H68.8822L69.44 11.3987L66.0527 14.7859C65.4789 14.5108 64.8369 14.3566 64.1593 14.3566C61.7362 14.3566 59.7648 16.3279 59.7648 18.7511C59.7648 21.1742 61.7362 23.1455 64.1593 23.1455C66.5824 23.1455 68.5538 21.1742 68.5538 18.7511C68.5538 18.0734 68.3994 17.4313 68.1243 16.8576L71.5115 13.4704L72.0693 14.0282V33.5689L58.1148 47.5236C57.5428 48.0956 57.5428 49.0231 58.1148 49.5953C58.6868 50.1671 59.6144 50.1671 60.1865 49.5953L74.5701 35.2117C74.8447 34.9369 74.9991 34.5644 74.9991 34.1759V13.4212C74.9991 13.0327 74.8447 12.6602 74.5701 12.3854L73.5831 11.3985ZM26.3052 26.2841C25.4972 26.2841 24.8399 25.6268 24.8399 24.8188C24.8399 24.0107 25.4972 23.3534 26.3052 23.3534C27.1132 23.3534 27.7704 24.0107 27.7704 24.8188C27.7704 25.6266 27.1132 26.2841 26.3052 26.2841ZM48.7345 7.91107C48.3461 7.91107 47.9734 8.06547 47.6988 8.34012L30.6637 25.375C30.6869 25.1926 30.7002 25.0072 30.7002 24.8187C30.7002 22.3952 28.7287 20.4236 26.3053 20.4236C23.882 20.4236 21.9104 22.3952 21.9104 24.8187C21.9104 27.2421 23.8819 29.2136 26.3053 29.2136C26.4938 29.2136 26.6793 29.2002 26.8616 29.1771L20.9668 35.072H5.27542C3.98198 35.072 2.92965 34.0196 2.92965 32.7262V5.27542C2.92965 3.98198 3.98198 2.92965 5.27542 2.92965H58.7531L63.7345 7.91107H48.7345ZM64.1593 20.2156C63.3516 20.2156 62.6945 19.5585 62.6945 18.7508C62.6945 17.9431 63.3516 17.2859 64.1593 17.2859C64.4936 17.2859 64.8012 17.3998 65.048 17.589C65.0868 17.6397 65.1281 17.6892 65.1744 17.7355C65.2207 17.7818 65.2702 17.8231 65.3209 17.8619C65.5101 18.1087 65.624 18.4163 65.624 18.7506C65.6241 19.5585 64.967 20.2156 64.1593 20.2156Z" fill="#687C94"/>
<path d="M48.7198 43.3346C49.1082 43.3346 49.4809 43.1802 49.7556 42.9056L53.07 39.591C53.642 39.019 53.642 38.0914 53.07 37.5193C52.498 36.9474 51.5705 36.9474 50.9985 37.5193L48.7198 39.7981L41.4692 32.5477C40.8973 31.9758 39.9697 31.9758 39.3976 32.5477C38.8256 33.1197 38.8256 34.0472 39.3976 34.6194L47.684 42.9056C47.9588 43.1802 48.3314 43.3346 48.7198 43.3346Z" fill="#F6376D"/>
<path d="M60.1135 30.4761C59.5414 29.9042 58.6139 29.9042 58.0418 30.4761L56.1773 32.3405L54.1058 30.2691L55.9702 28.4047C56.5422 27.8327 56.5422 26.9051 55.9702 26.333C55.3982 25.7611 54.4707 25.7611 53.8985 26.333L52.0341 28.1974L49.9625 26.1258L51.827 24.2614C52.399 23.6894 52.3991 22.7619 51.827 22.1897C51.2549 21.618 50.3274 21.6178 49.7554 22.1897L46.8552 25.0899C46.5805 25.3646 46.4261 25.7372 46.4261 26.1257C46.4261 26.5142 46.5805 26.8867 46.8552 27.1615L55.1416 35.4477C55.4275 35.7336 55.8025 35.8767 56.1773 35.8767C56.5522 35.8767 56.9272 35.7336 57.2131 35.4477L60.1133 32.5475C60.6855 31.9756 60.6855 31.0481 60.1135 30.4761Z" fill="#F6376D"/>
<path d="M43.9117 47.318C44.6323 47.6854 45.5145 47.3986 45.8819 46.6777C46.2491 45.9569 45.9625 45.0749 45.2415 44.7077L34.2622 39.1144C33.6968 38.8263 33.0102 38.9351 32.5615 39.3838C32.1128 39.8325 32.004 40.5192 32.2921 41.0844L37.8854 52.0637C38.1441 52.5717 38.6583 52.8641 39.1918 52.864C39.4154 52.864 39.6426 52.8126 39.8555 52.704C40.5763 52.3368 40.863 51.4548 40.4959 50.734L40.0468 49.8522L43.0302 46.8687L43.9117 47.318ZM38.6483 47.1075L36.9485 43.7708L40.2854 45.4707L38.6483 47.1075Z" fill="#F6376D"/>
<path d="M29.8685 58.6495C29.2965 59.2215 29.2964 60.149 29.8685 60.7212C30.1546 61.0071 30.5294 61.1502 30.9043 61.1502C31.2791 61.1502 31.6541 61.0071 31.9401 60.7212L34.0118 58.6496C35.7252 56.9362 35.7252 54.1484 34.0118 52.4348C32.3832 50.8062 29.7847 50.7268 28.0599 52.194C28.0063 52.2346 27.9541 52.2776 27.9054 52.3266L27.797 52.4348C27.5203 52.7115 27.1524 52.8639 26.7612 52.8639C26.3699 52.8639 26.0021 52.7115 25.7254 52.4348C25.1543 51.8637 25.1543 50.9344 25.7254 50.3631L27.797 48.2916C28.369 47.7195 28.3691 46.792 27.797 46.2199C27.2249 45.6481 26.2974 45.648 25.7254 46.2199L23.6537 48.2914C21.9403 50.0048 21.9403 52.7928 23.6537 54.5064C24.4838 55.3363 25.5873 55.7934 26.761 55.7934C27.9332 55.7934 29.0353 55.3375 29.8653 54.5093C29.8663 54.5083 29.8675 54.5074 29.8685 54.5064C30.4395 53.9351 31.3689 53.9351 31.9401 54.5064C32.2168 54.7831 32.3691 55.1507 32.3691 55.542C32.3691 55.9334 32.2168 56.3012 31.9401 56.5778L29.8685 58.6495Z" fill="#F6376D"/>
<path d="M25.098 9.45641C24.3936 9.05886 23.5 9.30729 23.1023 10.0119L13.6542 26.7481C13.2565 27.4526 13.5051 28.346 14.2097 28.7437C14.4373 28.8722 14.6844 28.9333 14.9285 28.9333C15.4397 28.9333 15.9361 28.6652 16.2054 28.1883L25.6535 11.4521C26.0512 10.7475 25.8026 9.85396 25.098 9.45641Z" fill="#687C94"/>
<path d="M18.3361 13.1832C18.3361 10.7597 16.3646 8.78821 13.9411 8.78821C11.5177 8.78821 9.54602 10.7597 9.54602 13.1832C9.54602 15.6066 11.5175 17.5783 13.941 17.5783C16.3644 17.5783 18.3361 15.6066 18.3361 13.1832ZM12.4757 13.1832C12.4757 12.3752 13.133 11.7179 13.941 11.7179C14.749 11.7179 15.4063 12.3752 15.4063 13.1832C15.4063 13.9913 14.749 14.6486 13.941 14.6486C13.133 14.6486 12.4757 13.9913 12.4757 13.1832Z" fill="#687C94"/>
<path d="M54.49 51.755C54.1033 51.755 53.7268 51.9117 53.4543 52.1843C53.1819 52.4567 53.0251 52.8346 53.0251 53.2198C53.0251 53.6052 53.1819 53.9832 53.4543 54.2555C53.7268 54.528 54.1033 54.6847 54.49 54.6847C54.8752 54.6847 55.2532 54.5281 55.5256 54.2555C55.7981 53.9832 55.9548 53.6052 55.9548 53.2198C55.9548 52.8346 55.7981 52.4567 55.5256 52.1843C55.2532 51.9119 54.8752 51.755 54.49 51.755Z" fill="black"/>
</svg>

<svg width="75" height="75" fill="none" xmlns="http://www.w3.org/2000/svg"><path d="M73.583 11.399l.987-.988A1.465 1.465 0 0072.5 8.34l-.988.988-.986-.987a1.465 1.465 0 00-1.036-.43h-1.611L60.396.43A1.465 1.465 0 0059.36 0H5.275A5.281 5.281 0 000 5.275v27.451a5.281 5.281 0 005.275 5.276h12.762l-8.582 8.582a5.24 5.24 0 00-1.545 3.73c0 1.409.549 2.734 1.545 3.73l19.411 19.41A5.24 5.24 0 0032.596 75a5.24 5.24 0 003.73-1.545l14.538-14.538a1.465 1.465 0 10-2.071-2.072L34.255 71.383a2.33 2.33 0 01-1.659.687 2.33 2.33 0 01-1.658-.687l-19.411-19.41a2.33 2.33 0 01-.687-1.66c0-.626.244-1.215.687-1.658L49.34 10.841h19.541l.558.558-3.387 3.387a4.368 4.368 0 00-1.894-.43 4.4 4.4 0 00-4.394 4.395 4.4 4.4 0 004.394 4.394 4.4 4.4 0 004.395-4.394c0-.678-.155-1.32-.43-1.893l3.388-3.388.557.558v19.54L58.115 47.525a1.465 1.465 0 002.072 2.071L74.57 35.212c.275-.275.43-.648.43-1.036V13.42c0-.388-.155-.76-.43-1.036l-.987-.986zM26.305 26.284a1.467 1.467 0 01-1.465-1.465c0-.808.657-1.466 1.465-1.466s1.465.658 1.465 1.466c0 .808-.657 1.465-1.465 1.465zm22.43-18.373c-.389 0-.762.154-1.036.43L30.664 25.374a4.4 4.4 0 00-4.358-4.951 4.4 4.4 0 00-4.396 4.395 4.4 4.4 0 004.952 4.358l-5.895 5.895H5.275a2.349 2.349 0 01-2.345-2.346V5.276A2.348 2.348 0 015.275 2.93h53.478l4.981 4.981h-15zm15.424 12.305a1.466 1.466 0 01-1.465-1.465c0-.808.658-1.465 1.465-1.465.335 0 .642.114.889.303.039.05.08.1.126.146.047.047.096.088.147.127.19.247.303.554.303.889 0 .807-.657 1.465-1.465 1.465z" fill="#687C94"/><path d="M48.72 43.335c.388 0 .76-.155 1.036-.43l3.314-3.314a1.465 1.465 0 00-2.072-2.072L48.72 39.8l-7.25-7.251a1.465 1.465 0 00-2.072 2.071l8.286 8.287c.275.274.647.429 1.036.429zM60.114 30.476a1.465 1.465 0 00-2.072 0l-1.865 1.864-2.071-2.07 1.864-1.865a1.465 1.465 0 00-2.072-2.072l-1.864 1.864-2.072-2.071 1.865-1.865a1.465 1.465 0 00-2.072-2.071l-2.9 2.9a1.465 1.465 0 000 2.072l8.287 8.286a1.46 1.46 0 002.072 0l2.9-2.9c.572-.572.572-1.5 0-2.072zM43.912 47.318a1.465 1.465 0 101.33-2.61l-10.98-5.594a1.465 1.465 0 00-1.97 1.97l5.593 10.98a1.464 1.464 0 102.61-1.33l-.448-.882 2.983-2.983.882.449zm-5.264-.21l-1.7-3.337 3.337 1.7-1.637 1.637zM29.869 58.65a1.465 1.465 0 002.071 2.071l2.072-2.071a4.4 4.4 0 000-6.215 4.4 4.4 0 00-5.952-.241c-.054.04-.106.084-.155.133l-.108.108c-.277.276-.645.429-1.036.429s-.759-.152-1.036-.43a1.467 1.467 0 010-2.07l2.072-2.072a1.465 1.465 0 00-2.072-2.072l-2.071 2.071a4.4 4.4 0 000 6.215 4.366 4.366 0 003.107 1.287 4.366 4.366 0 003.104-1.284l.004-.003a1.466 1.466 0 012.5 1.036c0 .391-.152.76-.429 1.036l-2.072 2.072z" fill="#F6376D"/><path d="M25.098 9.456a1.465 1.465 0 00-1.996.556l-9.448 16.736a1.465 1.465 0 102.551 1.44l9.449-16.736a1.465 1.465 0 00-.556-1.996zM18.336 13.183a4.4 4.4 0 00-4.395-4.395 4.4 4.4 0 00-4.395 4.395 4.4 4.4 0 004.395 4.395 4.4 4.4 0 004.395-4.395zm-5.86 0c0-.808.657-1.465 1.465-1.465s1.465.657 1.465 1.465-.657 1.466-1.465 1.466a1.467 1.467 0 01-1.465-1.466z" fill="#687C94"/><path d="M54.49 51.755c-.387 0-.763.157-1.036.43-.272.272-.429.65-.429 1.035 0 .385.157.763.43 1.035.272.273.648.43 1.035.43.385 0 .763-.157 1.036-.43.272-.272.429-.65.429-1.035 0-.385-.157-.763-.43-1.036a1.476 1.476 0 00-1.035-.429z" fill="#000"/></svg>
